X:1
T: Adelphi Polka
M:2/4     %Meter
L:1/16     %
K:D
"A7"c2E2 c3B |"D"BAA^G A3f-|f2g2 "A"e3f |e2f2 "D"d4 |
"A7"c2E2 c3B |"D"BAA^G A3f-|"A"f2g2 cBcd |e2d2 "D"d4 :|
|:"D"f3f f2e2 |d2c2 B2A2 |FAdA "A"c2B2 |"D"FAdA "A"c2B2 |
"A"e3f e2d2 |c2B2 A4 |"D"DCDE FEFG |A2 z2 "D7"A4 :|
K:G
|:"G"B2BB B2c2 |"D7"A6 B2 |"C"c2cc c2d2 |"G"B6 c2 |"E7"d2^d2 e2B2 ||
|1"Am7"d2^c2 =c4 |"D7"c2cc d2A2 |"G"c2B2 B4 :|2"Am7"d2^c2 =c4 |"D"d2dd "D7"[e2c2][A2f2] |["G"G6g6] z2 :|
     %End of file
